melody-of-light/img/category/category-2.svg

<svg width="20" height="20" viewBox="0 0 20 20" fill="none" xmlns="http://www.w3.org/2000/svg">
<path d="M17.0985 11.6846C17.2271 11.4898 17.2666 11.2161 17.21 10.9138L15.7179 2.9489C15.5773 2.19843 14.8962 1.54012 14.2604 1.54012L9.30594 1.54004C8.67015 1.54004 7.98911 2.19835 7.8485 2.94882L6.35623 10.914C6.29961 11.2162 6.33922 11.4899 6.46765 11.6847C6.59614 11.8794 6.80792 11.9867 7.06402 11.9867H16.5022C16.7583 11.9867 16.97 11.8794 17.0985 11.6846Z" fill="#93939F"/>
<path d="M3.28076 10.6902C3.28076 10.4375 3.07592 10.2327 2.82324 10.2327C2.57056 10.2327 2.36573 10.4375 2.36573 10.6902H3.28076ZM2.36573 18.4325C2.36573 18.6852 2.57056 18.89 2.82324 18.89C3.07592 18.89 3.28076 18.6852 3.28076 18.4325H2.36573ZM12.2405 13.3578V12.9003H11.3254V13.3578H12.2405ZM11.6083 15.8498L11.5419 16.3024L11.6083 15.8498ZM2.36573 10.6902V14.5614H3.28076V10.6902H2.36573ZM2.36573 14.5614V18.4325H3.28076V14.5614H2.36573ZM2.75685 15.014L11.5419 16.3024L11.6747 15.3971L2.88963 14.1087L2.75685 15.014ZM12.2405 15.6989V13.3578H11.3254V15.6989H12.2405ZM11.5419 16.3024C11.9101 16.3564 12.2405 16.071 12.2405 15.6989H11.3254C11.3254 15.5128 11.4906 15.3701 11.6747 15.3971L11.5419 16.3024Z" fill="#93939F"/>
</svg>

<svg width="20" height="20" fill="none" xmlns="http://www.w3.org/2000/svg"><path d="M17.099 11.685c.128-.195.168-.469.111-.771l-1.492-7.965c-.14-.75-.822-1.409-1.458-1.409H9.306c-.636 0-1.317.658-1.457 1.409l-1.493 7.965c-.056.302-.017.576.112.77.128.195.34.303.596.303h9.438a.686.686 0 00.597-.302zM3.28 10.69a.457.457 0 10-.914 0h.915zm-.914 7.743a.457.457 0 10.915 0h-.915zm9.875-5.075V12.9h-.916v.458h.916zm-.633 2.492l-.066.452.066-.452zm-9.242-5.16v3.871h.915v-3.87h-.915zm0 3.871v3.872h.915V14.56h-.915zm.39.453l8.786 1.288.133-.905L2.89 14.11l-.133.905zm9.485.685v-2.341h-.916v2.34h.916zm-.7.603a.61.61 0 00.7-.603h-.916c0-.186.166-.329.35-.302l-.133.905z" fill="#93939F"/></svg>
